!!!COM: Dufay, Guillaume
!!!CDT: ~1400///-1474/11//
!!!OTL: O tres piteulx/Omnes amici
!!!OTA: Lamentio sancte matris ecclesie Constantinopolitane
!!!AGN: non-isorhythmic motet
**kern	**kern	**kern	**kern
!!bassus	!tenor	!altus	!superius
*Ivox	*Ivox	*Ivox	*Ivox
*M3/4	*M3/4	*M3/4	*M3/4
*k[b-e-a-]	*k[b-e-a-]	*k[b-e-a-d-]	*k[b-e-a-]
*MM110	*MM110	*MM110	*MM110
=1	=1	=1	=1
2.r	2.r	4.A-	2a-
.	.	8B-	.
.	.	4c	4a-
=2	=2	=2	=2
2.r	2.r	8d-	4b-
.	.	8c	.
.	.	[2A-	2cc
=3	=3	=3	=3
2.r	2.r	4A-]	4cc
.	.	[2e-	4cc
.	.	.	4cc
=4	=4	=4	=4
2.r	2.r	4e-]	8b-
.	.	.	8cc
.	.	2f	4.dd-
.	.	.	8cc
=5	=5	=5	=5
2.r	2.r	4e-	4.cc
.	.	2d-	.
.	.	.	8b-
.	.	.	8b-
.	.	.	8a-
=6	=6	=6	=6
2.r	2.r	2.c	2cc
.	.	.	4r
=7	=7	=7	=7
2.r	2.r	4A-	4cc
.	.	4A-	4cc
.	.	4A-	4cc
=8	=8	=8	=8
2.r	2.r	2A-	2cc
.	.	8F	4cc
.	.	8E-	.
=9	=9	=9	=9
2.r	2.r	4A-	4cc
.	.	2B-	4.dd-
.	.	.	8cc
=10	=10	=10	=10
2.r	2.r	4A-	4cc
.	.	4G	4.b-
.	.	4E-	.
.	.	.	8g
=11	=11	=11	=11
2.r	2.r	4F	4a-
.	.	4E-	8.g
.	.	.	16a-
.	.	8r	8b-
.	.	8B-	8dd-
=12	=12	=12	=12
2.r	2.r	8A-	8cc
.	.	4d-	8.b-
.	.	.	16a-
.	.	8c	4a-
.	.	4B-	.
.	.	.	8g
=13	=13	=13	=13
4.A-	2.r	4A-	2.a-
.	.	4c	.
8B-	.	.	.
4c	.	[4F	.
=14	=14	=14	=14
4c	2.A-	4F]	4r
2F	.	2c	4r
.	.	.	4a-
=15	=15	=15	=15
4E-	2.B-	4.G	4g
2D-	.	.	8b-
.	.	4.F	8a-
.	.	.	4f
=16	=16	=16	=16
2.C	4c	2.G	4e-
.	2c	.	4g
.	.	.	4g
=17	=17	=17	=17
2.F	4c	2.A-	8f
.	.	.	4cc
.	2c	.	.
.	.	.	8.a-
.	.	.	16g
.	.	.	8f
=18	=18	=18	=18
2C	2.c	2G	8e-
.	.	.	8f
.	.	.	4g
4A-	.	4F	4a-
=19	=19	=19	=19
4E-	4B-	4G	4g
2F	4.d-	2A-	4r
.	.	.	4r
.	8c	.	.
=20	=20	=20	=20
4C	4.c	4G	2.r
2D-	.	2F	.
.	4B-	.	.
.	8A-	.	.
=21	=21	=21	=21
[2.C	2.c	2.G	2.r
=22	=22	=22	=22
2.C]	2.r	2.c	4g
.	.	.	4g
.	.	.	4g
=23	=23	=23	=23
4F	2.r	8r	4a-
.	.	4c	.
8E-	.	.	8g
8F	.	8f	8a-
4G	.	8d	4b-
.	.	8e-	.
=24	=24	=24	=24
4A-	2.r	4c	4cc
8G	.	2d	8b-
8A-	.	.	8a-
4B-	.	.	8.g
.	.	.	16f
=25	=25	=25	=25
4c	2.r	4e-	8a-
.	.	.	16g
.	.	.	8g
8B-	.	8d-	.
.	.	.	16f
8A-	.	8c	8f
4G	.	8.B-	8d
.	.	.	8e
.	.	16A	.
=26	=26	=26	=26
2.F	2.r	2c	4f
.	.	.	4r
.	.	4f	4a-
=27	=27	=27	=27
2.r	2c	8e-	4g
.	.	8f	.
.	.	4g	4cc
.	4c	4e-	4cc
=28	=28	=28	=28
2F	2.c	2.f	8a-
.	.	.	8b-
.	.	.	4cc
4F	.	.	4f
=29	=29	=29	=29
4.A-	2.c	2.r	2e-
8G	.	.	.
8F	.	.	8f
8E-	.	.	8g
=30	=30	=30	=30
4F	4c	4r	4a-
4C	4c	4r	8g
.	.	.	8e-
4D-	8B-	4F	4f
.	8A-	.	.
=31	=31	=31	=31
2C	2c	4.E-	2.g
.	.	8F	.
4C	4r	4G	.
=32	=32	=32	=32
2F	2c	4A-	4r
.	.	4F	4.a-
4F	[4c	4f	.
.	.	.	8g
=33	=33	=33	=33
2.r	4c]	4e-	4a-
.	2d-	[2f	4.b-
.	.	.	8a-
=34	=34	=34	=34
2F	4c	2f]	4cc
.	2c	.	8r
.	.	.	4cc
[4A-	.	4e-	.
.	.	.	8b-
=35	=35	=35	=35
4A-]	4c	2.e-	4a-
2E-	2B-	.	2g
=36	=36	=36	=36
4F	4A-	2.c	4f
2C	4.G	.	2e-
.	8A-	.	.
=37	=37	=37	=37
4r	4B-	2d	8g
.	.	.	8a-
4G	2B-	.	4.b-
4E-	.	4e-	.
.	.	.	8cc
=38	=38	=38	=38
4B-	4r	4f	4dd
2A-	2c	8c	4ee-
.	.	4e-	.
.	.	.	8cc
.	.	8f	[8ee-
=39	=39	=39	=39
4E-	4B-	4g	8ee-]
.	.	.	8dd-
4F	4A-	4f	8cc
.	.	.	8a-
4G	4d-	4B-	4b-
=40	=40	=40	=40
4A-	4c	2.e-	4.a-
2E-	2B-	.	.
.	.	.	8g
.	.	.	8g
.	.	.	8f
=41	=41	=41	=41
4r	[2.A-	4e-	[2.a-
[2A-	.	4.c	.
.	.	8d	.
=42	=42	=42	=42
2.A-]	2.A-]	2.e-	2.a-]
=43	=43	=43	=43
*M2/2	*M2/2	*M2/2	*M2/2
2A-	1r	[1e-	2a-
2E-	.	.	2b-
=44	=44	=44	=44
1A-	1r	2e-]	4cc
.	.	.	2cc
.	.	4a-	.
.	.	[4a-	4cc
=45	=45	=45	=45
2A-	1r	4a-]	4cc
.	.	4g	4cc
2B-	.	2f	4b-
.	.	.	4dd-
=46	=46	=46	=46
4c	1r	2e-	4ee-
4e-	.	.	2cc
2d-	.	2f	.
.	.	.	8b-
.	.	.	8a-
=47	=47	=47	=47
1c	1r	2g	2cc
.	.	2e-	2r
=48	=48	=48	=48
2r	1r	4f	2cc
.	.	4e-	.
4.A-	.	[2c	4cc
.	.	.	4cc
8G	.	.	.
=49	=49	=49	=49
4F	1r	4c]	4cc
4E-	.	2e-	4cc
2A-	.	.	2cc
.	.	[4f	.
=50	=50	=50	=50
2B-	1r	4f]	2dd-
.	.	4g	.
4A-	.	2a-	4cc
4F	.	.	4a-
=51	=51	=51	=51
2G	1r	4g	4.b-
.	.	4.e-	.
.	.	.	8a-
4A-	.	.	4a-
.	.	8c	.
4B-	.	8.d-	8g
.	.	.	[8f
.	.	16c	.
=52	=52	=52	=52
2c	1r	4A-	8f]
.	.	.	8e-
.	.	4c	4a-
4d-	.	4B-	4b-
4e-	.	4A-	[4cc
=53	=53	=53	=53
4A-	1r	2e-	8cc]
.	.	.	8a-
4c	.	.	2a-
2B-	.	2d	.
.	.	.	4g
=54	=54	=54	=54
1A-	1r	1e-	2a-
.	.	.	2r
=55	=55	=55	=55
2r	1A-	4.c	2e-
.	.	8d-	.
2c	.	2e-	4a-
.	.	.	4g
=56	=56	=56	=56
4.d-	2B-	2r	4.f
8c	.	.	8e-
[2A-	2c	4.a-	2e-
.	.	8g	.
=57	=57	=57	=57
2A-]	2c	4e-	2ee-
.	.	4a-	.
2e-	2c	8g	2ee-
.	.	4g	.
.	.	8f	.
=58	=58	=58	=58
1A-	2c	2a-	2cc
.	2c	[2e-	2a-
=59	=59	=59	=59
2E-	4B-	2e-]	2g
.	4c	.	.
2B-	2d-	2r	4f
.	.	.	4g
=60	=60	=60	=60
4F	2c	2r	4a-
4A-	.	.	4.f
2G	4.B-	2E-	.
.	.	.	8d
.	.	.	4e-
.	8A-	.	.
=61	=61	=61	=61
1F	2c	4A-	4f
.	.	4B-	4r
.	2r	4c	2a-
.	.	4d-	.
=62	=62	=62	=62
4.E-	1r	4e-	4b-
.	.	[4B-	8g
8F	.	.	8e-
4G	.	4B-]	4.e-
4A-	.	4c	.
.	.	.	8c
=63	=63	=63	=63
4F	1r	4A-	4d
2E-	.	4B-	4e-
.	.	4c-	4g-
4D-	.	[4d-	[4f
=64	=64	=64	=64
2G-	1r	8d-]	8f]
.	.	8B-	8e-
.	.	4B-	2e-
2F	.	4.A	.
.	.	.	4d
.	.	8G	.
=65	=65	=65	=65
1E-	1r	2B-	2e-
.	.	[2e-	2r
=66	=66	=66	=66
[1A-	2c	2e-]	2r
.	[2c	4a-	4e-
.	.	[4a-	4e-
=67	=67	=67	=67
1A-]	2c]	8a-]	4e-
.	.	8g	.
.	.	8f	[4a-
.	.	8e-	.
.	2c	2e-	4a-]
.	.	.	4a-
=68	=68	=68	=68
4r	4c	2A-	4a-
4F	4c	.	4a-
4E-	2c	2r	4g
[4F	.	.	4f
=69	=69	=69	=69
4F]	2c	2r	4a-
2C	.	.	4g
.	4c	[2G	4e-
4BB-	4d	.	4r
=70	=70	=70	=70
4C	4e-	2G]	1r
4E-	2c	.	.
2D-	.	2F	.
.	4B-	.	.
=71	=71	=71	=71
2C	2c	4G	4e-
.	.	4A-	4f
2E-	2r	2G	2g
=72	=72	=72	=72
4r	2c	2F	4a-
4F	.	.	2a-
2F	[2c	2f	.
.	.	.	4g
=73	=73	=73	=73
1C	4c]	[2e-	2a-
.	4c	.	.
.	2c	2e-]	2a-
=74	=74	=74	=74
1BB-	1d-	2f	[2b-
.	.	2B-	2b-]
=75	=75	=75	=75
2C	2c	4r	4g
.	.	[4e-	4a-
2E-	2B-	2e-]	2g
=76	=76	=76	=76
2F	2A-	4c	2f
.	.	4d	.
[2E-	2G	[2e-	2g
=77	=77	=77	=77
4E-]	2B-	2e-]	2r
4F	.	.	.
2G	2B-	2d-	2b-
=78	=78	=78	=78
1A-	2.c	4c	2a-
.	.	[4e-	.
.	.	4e-]	[2ee-
.	4A-	4f	.
=79	=79	=79	=79
2E-	2B-	2g	4ee-]
.	.	.	4dd-
2F	2A-	2c	3cc
.	.	.	6a-
=80	=80	=80	=80
4E-	4G	4r	4b-
2A-	2F	4c	4cc
.	.	4d-	4a-
4G	4E-	4e-	4b-
=81	=81	=81	=81
2F	2A-	4c	4cc
.	.	4d	4f
2E-	2B-	2e-	4.g
.	.	.	8f
=82	=82	=82	=82
2r	[1A-	[1e-	[1a-
[2A-	.	.	.
=83	=83	=83	=83
1A-]	1A-]	1e-]	1a-]
*-	*-	*-	*-
!!!ENC: Craig Stuart Sapp
!!!END: 2004/03/15/
